X: 457
T: Ramustapha
M: C
L: 1/8
K: D
"A"|: "D"zF2 E D2 D2 | "A7"EF ED "D"F2 F2 | "D"zA, DE F2 FF | "A7"EG FE "D"D4 :|
"B"|: "D(B7)"zF2 F F2 FF | "Em"GA GF "A"E4 | "A7"zE2 E E2 EE | "A7"FG FE "D"D4 :|
K:Dm
"C"|: "Dm"AB AG A2 FF | FE FG A4 "D":: "Dm"A/A/A G/G/G F/F/F "A"E2 | "A7"G/G/G F/F/F E/E/E "Dm"D2 :|
K:D
"B"|: "D(B7)"zF2 F F2 FF | "Em"GA GF "A"E4 | "A7"zE2 E E2 EE | "A7"FG FE "D"D4 :|
